SVG_Azure_Grouped/Management/Policy Initiative.svg

<?xml version="1.0" encoding="UTF-8" standalone="no"?>
<!-- Generated by Microsoft Visio, SVG Export Policy Initiative.svg Page-1 -->

<svg
   xmlns:dc="http://purl.org/dc/elements/1.1/"
   xmlns:cc="http://creativecommons.org/ns#"
   xmlns:rdf="http://www.w3.org/1999/02/22-rdf-syntax-ns#"
   xmlns:svg="http://www.w3.org/2000/svg"
   xmlns="http://www.w3.org/2000/svg"
   xmlns:sodipodi="http://sodipodi.sourceforge.net/DTD/sodipodi-0.dtd"
   xmlns:inkscape="http://www.inkscape.org/namespaces/inkscape"
   width="0.78739738in"
   height="0.78736919in"
   viewBox="0 0 56.692679 56.690869"
   xml:space="preserve"
   class="st6"
   version="1.1"
   id="svg54"
   sodipodi:docname="Policy Initiative.svg"
   style="font-size:12px;overflow:visible;color-interpolation-filters:sRGB;fill:none;fill-rule:evenodd;stroke-linecap:square;stroke-miterlimit:3"
   inkscape:version="0.92.5 (2060ec1f9f, 2020-04-08)"><metadata
   id="metadata60"><rdf:RDF><cc:Work
       rdf:about=""><dc:format>image/svg+xml</dc:format><dc:type
         rdf:resource="http://purl.org/dc/dcmitype/StillImage" /></cc:Work></rdf:RDF></metadata><defs
   id="defs58" /><sodipodi:namedview
   pagecolor="#ffffff"
   bordercolor="#666666"
   borderopacity="1"
   objecttolerance="10"
   gridtolerance="10"
   guidetolerance="10"
   inkscape:pageopacity="0"
   inkscape:pageshadow="2"
   inkscape:window-width="640"
   inkscape:window-height="480"
   id="namedview56"
   showgrid="false"
   inkscape:zoom="1.7193066"
   inkscape:cx="37.795072"
   inkscape:cy="23.279613"
   inkscape:window-x="0"
   inkscape:window-y="0"
   inkscape:window-maximized="0"
   inkscape:current-layer="svg54" />
	<style
   type="text/css"
   id="style2">
	<![CDATA[
		.st1 {fill:#804998;stroke:none;stroke-linecap:butt;stroke-width:12.24}
		.st2 {fill:#59b4d9;stroke:none;stroke-linecap:butt;stroke-width:12.24}
		.st3 {fill:#ffffff;fill-opacity:0.8;stroke:none;stroke-linecap:butt;stroke-width:12.24}
		.st4 {fill:#3999c6;fill-opacity:0.8;stroke:none;stroke-linecap:butt;stroke-width:12.24}
		.st5 {fill:#ffffff;fill-opacity:0.2;stroke:none;stroke-linecap:butt;stroke-width:12.24}
		.st6 {fill:none;fill-rule:evenodd;font-size:12px;overflow:visible;stroke-linecap:square;stroke-miterlimit:3}
	]]>
	</style>

	<g
   id="g52"
   transform="translate(-12.24016,-12.24343)">
		<title
   id="title4">Page-1</title>
		<g
   id="group12211-1"
   transform="translate(12.24,-34.0157)">
			<title
   id="title6">Policy Initiative.12211</title>
			<g
   id="group12212-2">
				<title
   id="title8">Sheet.12212</title>
				<g
   id="shape12213-3"
   transform="translate(0,-19.2756)">
					<title
   id="title10">Sheet.12213</title>
					<path
   d="m 6.8,96.15 -6.8,6.8 h 56.69 l -6.8,-6.8 z"
   class="st1"
   id="path12"
   inkscape:connector-curvature="0"
   style="fill:#804998;stroke:none;stroke-width:12.23999977;stroke-linecap:butt" />
				</g>
				<g
   id="shape12214-5"
   transform="translate(6.80315,-3.40157)">
					<title
   id="title15">Sheet.12214</title>
					<path
   d="M 35.17,63.04 29.78,57.59 27.53,55.33 H 0 v 47.62 H 37.42 V 65.3 Z"
   class="st2"
   id="path17"
   inkscape:connector-curvature="0"
   style="fill:#59b4d9;stroke:none;stroke-width:12.23999977;stroke-linecap:butt" />
				</g>
				<g
   id="shape12215-7"
   transform="translate(9.05046,-5.66929)">
					<title
   id="title20">Sheet.12215</title>
					<path
   d="M 25.06,59.86 H 0 v 43.09 H 32.92 V 67.8 h -7.86 z"
   class="st3"
   id="path22"
   inkscape:connector-curvature="0"
   style="fill:#ffffff;fill-opacity:0.8;stroke:none;stroke-width:12.23999977;stroke-linecap:butt" />
				</g>
				<g
   id="shape12216-9"
   transform="translate(11.3386,-9.07087)">
					<title
   id="title25">Sheet.12216</title>
					<path
   d="M 36.3,63.04 30.91,57.59 28.66,55.33 H 0 v 47.62 H 38.55 V 65.3 Z"
   class="st2"
   id="path27"
   inkscape:connector-curvature="0"
   style="fill:#59b4d9;stroke:none;stroke-width:12.23999977;stroke-linecap:butt" />
				</g>
				<g
   id="shape12217-11"
   transform="translate(13.5859,-11.3386)">
					<title
   id="title30">Sheet.12217</title>
					<path
   d="M 26.19,59.86 H 0 v 43.09 H 34.06 V 67.8 h -7.87 z"
   class="st3"
   id="path32"
   inkscape:connector-curvature="0"
   style="fill:#ffffff;fill-opacity:0.8;stroke:none;stroke-width:12.23999977;stroke-linecap:butt" />
				</g>
				<g
   id="shape12218-13"
   transform="translate(20.4094,-18.2835)">
					<title
   id="title35">Sheet.12218</title>
					<path
   d="m 0,85.45 v 11.49 c 0,0.09 0.05,0.17 0.13,0.22 l 9.95,5.74 c 0.08,0.05 0.17,0.05 0.25,0 l 9.95,-5.74 a 0.25285,0.25285 -180 0 0 0.126992,-0.221102 L 20.41,85.45 A 0.256252,0.256252 -180 0 0 20.283008,85.228898 L 10.33,79.48 a 0.256252,0.256252 -180 0 0 -0.255118,0 L 0.13,85.23 a 0.255118,0.255118 -180 0 0 -0.128126,0.221102 z"
   class="st4"
   id="path37"
   inkscape:connector-curvature="0"
   style="fill:#3999c6;fill-opacity:0.8;stroke:none;stroke-width:12.23999977;stroke-linecap:butt" />
				</g>
				<g
   id="shape12219-15">
					<title
   id="title40">Sheet.12219</title>
					<rect
   x="0"
   y="83.673103"
   width="56.692902"
   height="19.2756"
   class="st1"
   id="rect42"
   style="fill:#804998;stroke:none;stroke-width:12.23999977;stroke-linecap:butt" />
				</g>
				<g
   id="shape12220-17">
					<title
   id="title45">Sheet.12220</title>
					<path
   d="m 0,83.67 v 19.28 H 20.41 L 35.15,83.67 Z"
   class="st5"
   id="path47"
   inkscape:connector-curvature="0"
   style="fill:#ffffff;fill-opacity:0.2;stroke:none;stroke-width:12.23999977;stroke-linecap:butt" />
				</g>
			</g>
		</g>
	</g>
</svg>

<?xml version="1.0" encoding="UTF-8" standalone="no"?>
<!DOCTYPE svg PUBLIC "-//W3C//DTD SVG 1.1//EN" "http://www.w3.org/Graphics/SVG/1.1/DTD/svg11.dtd">
<!-- Generated by Microsoft Visio, SVG Export Policy Initiative.svg Page-1 -->
<svg xmlns="http://www.w3.org/2000/svg" xmlns:xlink="http://www.w3.org/1999/xlink" xmlns:ev="http://www.w3.org/2001/xml-events"
		width="1.1274in" height="1.42984in" viewBox="0 0 81.1729 102.949" xml:space="preserve" color-interpolation-filters="sRGB"
		class="st6">
	<style type="text/css">
	<![CDATA[
		.st1 {fill:#804998;stroke:none;stroke-linecap:butt;stroke-width:12.24}
		.st2 {fill:#59b4d9;stroke:none;stroke-linecap:butt;stroke-width:12.24}
		.st3 {fill:#ffffff;fill-opacity:0.8;stroke:none;stroke-linecap:butt;stroke-width:12.24}
		.st4 {fill:#3999c6;fill-opacity:0.8;stroke:none;stroke-linecap:butt;stroke-width:12.24}
		.st5 {fill:#ffffff;fill-opacity:0.2;stroke:none;stroke-linecap:butt;stroke-width:12.24}
		.st6 {fill:none;fill-rule:evenodd;font-size:12px;overflow:visible;stroke-linecap:square;stroke-miterlimit:3}
	]]>
	</style>

	<g>
		<title>Page-1</title>
		<g id="group11932-1" transform="translate(12.24,-34.0157)">
			<title>Policy Initiative.11932</title>
			<g id="group11933-2">
				<title>Sheet.11933</title>
				<g id="shape11934-3" transform="translate(0,-19.2756)">
					<title>Sheet.11934</title>
					<path d="M6.8 96.15 L0 102.95 L56.69 102.95 L49.89 96.15 L6.8 96.15 Z" class="st1"/>
				</g>
				<g id="shape11935-5" transform="translate(6.80315,-3.40157)">
					<title>Sheet.11935</title>
					<path d="M35.17 63.04 L29.78 57.59 L27.53 55.33 L0 55.33 L0 102.95 L37.42 102.95 L37.42 65.3 L35.17 63.04 Z"
							class="st2"/>
				</g>
				<g id="shape11936-7" transform="translate(9.05046,-5.66929)">
					<title>Sheet.11936</title>
					<path d="M25.06 59.86 L0 59.86 L0 102.95 L32.92 102.95 L32.92 67.8 L25.06 67.8 L25.06 59.86 Z" class="st3"/>
				</g>
				<g id="shape11937-9" transform="translate(11.3386,-9.07087)">
					<title>Sheet.11937</title>
					<path d="M36.3 63.04 L30.91 57.59 L28.66 55.33 L0 55.33 L0 102.95 L38.55 102.95 L38.55 65.3 L36.3 63.04 Z"
							class="st2"/>
				</g>
				<g id="shape11938-11" transform="translate(13.5859,-11.3386)">
					<title>Sheet.11938</title>
					<path d="M26.19 59.86 L0 59.86 L0 102.95 L34.06 102.95 L34.06 67.8 L26.19 67.8 L26.19 59.86 Z" class="st3"/>
				</g>
				<g id="shape11939-13" transform="translate(20.4094,-18.2835)">
					<title>Sheet.11939</title>
					<path d="M0 85.45 L0 96.94 C0 97.03 0.05 97.11 0.13 97.16 L10.08 102.9 C10.16 102.95 10.25 102.95 10.33 102.9
								 L20.28 97.16 a0.25285 0.25285 -180 0 0 0.126992 -0.221102 L20.41 85.45 a0.256252 0.256252 -180 0
								 0 -0.126992 -0.221102 L10.33 79.48 a0.256252 0.256252 -180 0 0 -0.255118 8.52651E-14 L0.13 85.23
								 a0.255118 0.255118 -180 0 0 -0.128126 0.221102 Z" class="st4"/>
				</g>
				<g id="shape11940-15">
					<title>Sheet.11940</title>
					<rect x="0" y="83.6731" width="56.6929" height="19.2756" class="st1"/>
				</g>
				<g id="shape11941-17">
					<title>Sheet.11941</title>
					<path d="M0 83.67 L0 102.95 L20.41 102.95 L35.15 83.67 L0 83.67 Z" class="st5"/>
				</g>
			</g>
		</g>
	</g>
</svg>
